packages/ffe-icons/icons/open/400/sm/nest_mini.svg

<svg xmlns="http://www.w3.org/2000/svg" height="20" viewBox="0 -960 960 960" width="20"><path d="M299.789-396Q315-396 325.5-406.289q10.5-10.29 10.5-25.5Q336-447 325.711-457.5q-10.29-10.5-25.5-10.5Q285-468 274.5-457.711q-10.5 10.29-10.5 25.5Q264-417 274.289-406.5q10.29 10.5 25.5 10.5Zm120 0Q435-396 445.5-406.289q10.5-10.29 10.5-25.5Q456-447 445.711-457.5q-10.29-10.5-25.5-10.5Q405-468 394.5-457.711q-10.5 10.29-10.5 25.5Q384-417 394.289-406.5q10.29 10.5 25.5 10.5Zm120 0Q555-396 565.5-406.289q10.5-10.29 10.5-25.5Q576-447 565.711-457.5q-10.29-10.5-25.5-10.5Q525-468 514.5-457.711q-10.5 10.29-10.5 25.5Q504-417 514.289-406.5q10.29 10.5 25.5 10.5Zm120 0Q675-396 685.5-406.289q10.5-10.29 10.5-25.5Q696-447 685.711-457.5q-10.29-10.5-25.5-10.5Q645-468 634.5-457.711q-10.5 10.29-10.5 25.5Q624-417 634.289-406.5q10.29 10.5 25.5 10.5ZM480-96q-70 0-131.133-26.6-61.134-26.6-106.4-71.867-45.267-45.266-71.867-106.4Q144-362 144-432q0-131 85.5-227T444-766v-109.951q0-15.321 10.289-25.685Q464.579-912 479.789-912 495-912 505.5-901.636q10.5 10.364 10.5 25.685V-766q129 12 214.5 107.5T816-432q0 70-26.6 131.133-26.6 61.134-71.867 106.4-45.266 45.267-106.4 71.867Q550-96 480-96Zm-.222-72Q590-168 667-244.778q77-76.779 77-187Q744-542 667.222-619q-76.779-77-187-77Q370-696 293-619.222q-77 76.779-77 187Q216-322 292.778-245q76.779 77 187 77ZM481-432Z"/></svg>

<svg xmlns="http://www.w3.org/2000/svg" height="20" viewBox="0 -960 960 960" width="20"><path d="M299.79-396q15.21 0 25.71-10.29t10.5-25.5q0-15.21-10.29-25.71t-25.5-10.5q-15.21 0-25.71 10.29t-10.5 25.5q0 15.21 10.29 25.71t25.5 10.5Zm120 0q15.21 0 25.71-10.29t10.5-25.5q0-15.21-10.29-25.71t-25.5-10.5q-15.21 0-25.71 10.29t-10.5 25.5q0 15.21 10.29 25.71t25.5 10.5Zm120 0q15.21 0 25.71-10.29t10.5-25.5q0-15.21-10.29-25.71t-25.5-10.5q-15.21 0-25.71 10.29t-10.5 25.5q0 15.21 10.29 25.71t25.5 10.5Zm120 0q15.21 0 25.71-10.29t10.5-25.5q0-15.21-10.29-25.71t-25.5-10.5q-15.21 0-25.71 10.29t-10.5 25.5q0 15.21 10.29 25.71t25.5 10.5ZM480-96q-70 0-131.13-26.6-61.14-26.6-106.4-71.87-45.27-45.26-71.87-106.4Q144-362 144-432q0-131 85.5-227T444-766v-109.95q0-15.32 10.29-25.69Q464.58-912 479.79-912t25.71 10.36q10.5 10.37 10.5 25.69V-766q129 12 214.5 107.5T816-432q0 70-26.6 131.13-26.6 61.14-71.87 106.4-45.26 45.27-106.4 71.87Q550-96 480-96Zm-.22-72Q590-168 667-244.78t77-187Q744-542 667.22-619t-187-77Q370-696 293-619.22t-77 187Q216-322 292.78-245t187 77ZM481-432Z"/></svg>
